Origami/32x32/apps/iridium-browser.svg

<svg width="32" height="32" version="1.1" viewBox="0 0 32 32" xmlns="http://www.w3.org/2000/svg">
 <g transform="matrix(1.25,0,0,-1.25,0,32.00033)">
  <path d="m14.400212 22.400264a10.399788 10.4 0 0 1 -0.396867 -0.01406c-0.186762 0.0042-0.372775 0.01464-0.560926 0.0094-0.619408-0.01733-1.247738-0.0847-1.876524-0.209374l-0.0016-0.0016c-0.630337-0.125529-1.241182-0.301466-1.8264875-0.526554-0.2048303-0.079502-0.3977743-0.186754-0.5734259-0.31875-0.344773 0.07007-0.6474996 0.251567-1.0093546 0.254688-0.3096412 0.002701-0.6225702-0.020524-0.9359181-0.071875-2.7431587-0.447447-4.4770358-2.821123-4.8577134-5.390625-0.1170776-0.064028-0.2419075-0.109924-0.3578052-0.176563-0.8313006-0.478132-1.2982132-1.405218-1.1874758-2.357812 0.09792008-0.843428 0.28770277-1.856446 0.64842427-2.9625 0.1842405-0.565077 0.4129389-1.1515052 0.6968608-1.7515624l0.00156-0.00313c0.3271473-0.6934836 0.7274033-1.3962708 1.2124777-2.0921828 2.5039816-3.5718544 6.2248682-5.1875024 10.632596-5.1703128l-0.103123-0.00781 0.162496 0.00781a10.399788 10.4 0 0 1 0.332806 -0.017187 10.399788 10.4 0 0 1 10.399788 10.4 10.399788 10.4 0 0 1 -10.399788 10.4z" style="opacity:.2"/>
  <path d="m14.400212 23.200264a10.399788 10.4 0 0 1 -0.396867 -0.01406c-0.186762 0.0042-0.372775 0.01464-0.560926 0.0094-0.619408-0.01733-1.247738-0.0847-1.876524-0.209374l-0.0016-0.0016c-0.630337-0.125529-1.241182-0.301466-1.8264875-0.526554-0.2048303-0.079502-0.3977743-0.186754-0.5734259-0.31875-0.344773 0.07007-0.6474996 0.251567-1.0093546 0.254688-0.3096412 0.002701-0.6225702-0.020524-0.9359181-0.071875-2.7431587-0.447447-4.4770358-2.821123-4.8577134-5.390625-0.1170776-0.064028-0.2419075-0.109924-0.3578052-0.176563-0.8313006-0.478132-1.2982132-1.405218-1.1874758-2.357812 0.09792008-0.843428 0.28770277-1.856446 0.64842427-2.9625 0.1842405-0.565077 0.4129389-1.151505 0.6968608-1.7515622l0.00156-0.00313c0.3271473-0.6934836 0.7274033-1.3962708 1.2124777-2.0921828 2.5039816-3.5718544 6.2248682-5.1875024 10.632596-5.1703128l-0.103123-0.00781 0.162496 0.00781a10.399788 10.4 0 0 1 0.332806 -0.017187 10.399788 10.4 0 0 1 10.399788 10.4 10.399788 10.4 0 0 1 -10.399788 10.4z" style="fill:#cccccc"/>
  <path d="m14.374523 14.759065c-0.0026 0.06184-0.0088 0.125649-0.01256 0.186126-0.03437 0.453585-0.09143 0.874116-0.156003 1.253771-0.01257 0.05829-0.02189 0.116472-0.03233 0.171737-0.0043 0.02512-0.0093 0.04848-0.01368 0.07382-0.0063 0.02304-0.01055 0.04818-0.01541 0.07028-0.680776 0.131071-1.365404 0.216887-2.052364 0.257553-0.380944 0.02346-0.764241 0.03097-1.145591 0.02639-0.781109-0.0096-1.563891-0.07789-2.3442089-0.205624-0.081053-0.01168-0.1638893-0.02669-0.2453067-0.04087-0.030873-0.0062-0.0618-0.01021-0.0913-0.01751-0.5382112-0.098733-1.068844-0.224902-1.5909616-0.379851-0.1130034-0.031698-0.2248611-0.064961-0.3372764-0.102291-0.0641851-0.019083-0.1289684-0.039728-0.1911364-0.060165-0.3673719-0.121582-0.7242118-0.254946-1.0803016-0.400302-0.6378882-0.264225-1.260541-0.569743-1.8660934-0.917909 0.082442-0.710094 0.2419413-1.5657 0.5450874-2.495195 0.1547053-0.474481 0.3461052-0.965415 0.584833-1.469947l0.00344-5e-3c0.2718731-0.576311 0.6047602-1.1622389 1.0109047-1.744902 0.1340671-0.1930185 0.2698068-0.3771639 0.4105742-0.5565121 1.5096382-1.9314357 3.2906351-3.0136679 4.6331907-3.6023999 0.01006 0.0099 0.02138 0.018373 0.03104 0.028268 0.02285 0.022398 0.04787 0.045577 0.07085 0.067454 0.371092 0.3467055 0.76567 0.7626478 1.162063 1.2513825 0.02945 0.038049 0.06031 0.074951 0.08949 0.1135627 0.02432 0.028759 0.04621 0.059229 0.07041 0.087975 0.05213 0.07031 0.107763 0.1415071 0.162095 0.2144144 0.439424 0.5974495 0.863438 1.2851563 1.235453 2.0719643 0.02727 0.056624 0.05311 0.1113629 0.07806 0.1677745 0.196548 0.4325215 0.376169 0.8953966 0.531869 1.3898766 0.01723 0.05462 0.03507 0.110091 0.05351 0.168254 0.0025 0.01055 0.0049 0.02078 0.0097 0.03121l-3.04e-4 0.0014c0.143534 0.481926 0.250779 0.956615 0.329643 1.413296 0.0052 0.02652 0.0093 0.0545 0.0147 0.07889 0.01075 0.06333 0.02027 0.124397 0.02859 0.186388 0.07217 0.465523 0.11424 0.912299 0.133399 1.342609 0.0022 0.06485 0.0045 0.127421 0.0043 0.191862 0.0148 0.403742 0.0055 0.78809-0.01823 1.152313" style="fill:#4282de"/>
  <path d="m9.2 12.800151a1.2000001 1.2000001 0 0 1 -1.2 -1.2 1.2000001 1.2000001 0 0 1 0.8062496 -1.132813v-0.8624996l-0.0062496-0.0093744 1.6 0.0046872-0.4140624 1.0953128a1.2000001 1.2000001 0 0 1 0.4140624 0.904687 1.2000001 1.2000001 0 0 1 -1.2 1.2z" style="opacity:.2"/>
  <path transform="matrix(.8 0 0 -.8 0 25.600264)" d="m11.5 15a1.5000001 1.5000001 0 0 0 -1.5 1.5 1.5000001 1.5000001 0 0 0 1.007812 1.416016v1.078125l-0.007812 0.011718 2-0.005859-0.517578-1.369141a1.5000001 1.5000001 0 0 0 0.517578 -1.130859 1.5000001 1.5000001 0 0 0 -1.5 -1.5z" style="fill:#ffffff"/>
  <path transform="matrix(.8 0 0 -.8 0 25.600264)" d="m16.886719 6.0039062c-0.609858 0.017062-1.227942 0.084549-1.845703 0.2070313-0.621892 0.123875-1.222897 0.2983544-1.792969 0.5175781 0.541594 0.3559038 1.043069 1.0926969 1.482422 1.5996094 0.215254-0.058837 0.431261-0.1085544 0.652343-0.1503906 2.477749-0.4918263 4.7818-0.2194059 6.732422 1.0586428l1.851563-0.826221 0.05078-0.023437c-1.970763-1.5718529-4.488149-2.456708-7.130858-2.382813zm7.86914 3.0292969-0.02344 0.011719c-0.163448 0.078238-0.320539 0.1569062-0.484375 0.234375-0.167464 0.07215-0.333724 0.1463312-0.503906 0.2226562-0.211887 0.094337-0.426979 0.1836938-0.650391 0.2695313-0.133401 0.052362-0.272082 0.1073887-0.408203 0.1640625-0.181839 0.072137-0.371563 0.1341499-0.556641 0.2031249-0.188445 0.06061-0.376557 0.133895-0.570312 0.193359-0.769706 0.253076-1.573418 0.46794-2.396485 0.660157-0.169874 0.0374-0.343486 0.06867-0.515625 0.101562l0.0098 0.04687c0.01397 0.06355 0.01853 0.07841 0.0078 0.03906l0.01367 0.04687 0.0098 0.04883c0.0012 0.0075 0.0059 0.03495 0.01563 0.0918 0.01452 0.07713 0.02561 0.138636 0.0332 0.173828l0.0039 0.02148 2e-3 0.01953c0.0554 0.325766 0.09455 1.111633 0.136718 1.483928 0.242801-0.07954 0.486969-0.156733 0.72461-0.242188 0.839775-0.312795 1.648858-0.647599 2.408203-1.017578 0.190776-0.08571 0.377553-0.191811 0.5625-0.279297 0.184041-0.1003 0.366709-0.184941 0.544922-0.283203 0.238695-0.135161 0.472838-0.263684 0.701171-0.394531 0.11255-0.06402 0.220111-0.1292 0.328126-0.19336 0.163188-0.1003 0.324942-0.200083 0.484374-0.294922 0.157232-0.09738 0.309275-0.204294 0.460938-0.300781 0.05323-0.03486 0.105609-0.068891 0.15625-0.1035159l-0.494141-0.9233798zm3.308594 5.5292969-0.183594 0.0957c-0.158397 0.08152-0.319322 0.168144-0.474609 0.251953-0.153735 0.08195-0.30539 0.16058-0.460938 0.230469l-0.958984 0.443359-1.921875 0.888672-0.478515 0.220703c-0.155548 0.07227-0.325859 0.132007-0.486329 0.195313-1.271358 0.534517-2.967041 0.932375-4.527343 1.283203-0.06004 0.52503-0.211255 0.898554-0.34375 1.386719-0.05263 0.167139-0.113324 0.324498-0.169922 0.486328 1.703839 0.06504 4.8292-0.03206 7.71875-2.462891 0.113587 0.722085-1.150524 2.466023-1.613282 3.021485-1.701771 2.049799-4.675576 2.459152-7.46875 2.376953-0.29725 0.503127-0.604909 0.97725-0.921874 1.408203l-2e-3 2e-3 -2e-3 2e-3c-0.07696 0.103275-0.146378 0.191722-0.201172 0.265625l-0.01953 0.02539-0.01953 0.02344c0.0016-0.0019-0.03393 0.03978-0.05664 0.06836l-0.0293 0.03906c-0.0029 0.0035-9.06e-4 0.0022-0.0039 0.0059-0.0334 0.04254-0.0688 0.08781-0.08398 0.107422l-0.0059 0.0098-0.0078 0.0098c-0.228729 0.28214-0.457123 0.538583-0.683594 0.785156 0.275168 0.06014 0.555954 0.0979 0.832031 0.144531 0.286745 0.06275 0.579847 0.07108 0.876954 0.08984 0.295034 0.01367 0.585706 0.04934 0.882812 0.02344l0.894531-0.03906 0.855469-0.125 0.212891-0.0293c0.04261-0.0086 0.05814-0.0067 0.11914-0.02148l0.107533-0.025593 0.427735-0.105469c0.140783-0.03651 0.285785-0.06596 0.427734-0.111328l0.416016-0.140625 0.414062-0.142578 0.404297-0.177734 0.402344-0.175782c0.131068-0.06626 0.255908-0.135342 0.386718-0.205078l0.388672-0.207031c0.126149-0.07023 0.244677-0.158439 0.369141-0.234375 0.245042-0.155814 0.491301-0.312881 0.714844-0.5 0.232351-0.177267 0.467001-0.350453 0.675781-0.556641 0.218101-0.195487 0.43784-0.389034 0.623047-0.601562l0.292968-0.310547 0.07227-0.08203 0.07813-0.08594c0.04455-0.05602 0.09204-0.114589 0.136719-0.169922 0.172385-0.228719 0.363834-0.448968 0.515625-0.691406l0.242187-0.359375c0.07654-0.12328 0.14648-0.249843 0.21875-0.375 0.1549-0.249767 0.277222-0.504863 0.400391-0.757812 0.128737-0.245609 0.24439-0.53841 0.339844-0.794922l0.148437-0.404297c0.04352-0.134515 0.08057-0.273781 0.123047-0.412109l0.117188-0.414063 0.08789-0.416016c0.06372-0.270966 0.10033-0.569233 0.138672-0.849609 0.04119-0.286715 0.04545-0.558038 0.07031-0.853516 0.01037-0.278648-0.0032-0.572062-0.0078-0.851562z" style="fill:#3f3f3f"/>
  <path d="m18.690625 15.084964c-0.934724-0.475402-2.343184-0.906112-3.514063-1.25 0.0176-0.337585 0.02928-0.683558 0.01563-1.05625-6.99e-4 -0.06994-0.0028-0.134666-0.0047-0.189063v-0.0062-0.0047c-0.0048-0.108294-0.01573-0.22086-0.02344-0.33125 1.54122 0.340042 3.329299 0.738874 4.460938 1.160938-0.536088 0.425533-0.856458 1.033961-0.934375 1.676562z" style="fill:#4282de"/>
  <path d="m22.133931 14.315121c-0.405032-0.60553-1.150925-0.850024-1.811813-0.641235-0.139862 0.04199-0.278257 0.106698-0.406289 0.193501-0.52961 0.351193-0.781173 0.959341-0.701296 1.548117 0.03078 0.231406 0.112433 0.462498 0.251457 0.670344 0.488468 0.73516 1.482993 0.936409 2.219149 0.447839 0.735215-0.48836 0.936109-1.481626 0.448792-2.218566" style="fill:#4282de"/>
  <path transform="matrix(.8 0 0 -.8 0 25.600264)" d="m10.167969 7.0078125c-0.2188526-0.0019088-0.4392329 0.0145775-0.6601565 0.0507813-2.0562775 0.3348264-3.5087618 2.2616139-3.6972656 4.5898442 0.0466284-0.019715 0.0919239-0.043137 0.1386719-0.0625h0.0019531 0.0039062c0.4363877-0.178134 0.8769719-0.341872 1.3300781-0.494141 0.3091903-1.3928038 1.2143517-2.4739924 2.4453126-2.6757814 0.3045152-0.0497375 0.6095612-0.040725 0.9023432 0.015625 0.118533 0.0221375 0.23243 0.0526688 0.345704 0.0898438 0.483906 0.158915 0.934755 0.4465181 1.324218 0.8417968 0.074019 0.0742126 0.143113 0.1496594 0.208985 0.2324219 0.115976 0.1359327 0.221039 0.2881829 0.318359 0.4472659 0.280706-0.015153 0.561448-0.039523 0.841797-0.042969 0.232046-0.0028011 0.467555 0.012502 0.701172 0.017578-0.172102-0.3738814-0.364275-0.731595-0.601563-1.0449218-0.076437-0.1012874-0.152401-0.1968487-0.230468-0.2890624-0.339924-0.3932075-0.725801-0.7303088-1.142578-0.9921876-0.110944-0.0725249-0.227744-0.1397831-0.34375-0.2011718-0.588159-0.3051075-1.230164-0.4767594-1.886719-0.4824219z" style="fill:#3f3f3f"/>
  <path transform="matrix(.8 0 0 -.8 0 25.600264)" d="m18 3a12.999735 13 0 0 0 -0.496094 0.0175781c-0.233452-0.00525-0.465983-0.0182687-0.701172-0.0117187-0.77426 0.0216625-1.55972 0.1058762-2.345703 0.2617187l-0.001953 0.0019531c-0.787921 0.1569113-1.551571 0.3768432-2.283203 0.6582032-0.256038 0.0993775-0.497232 0.2334425-0.716797 0.3984375-0.430966-0.0875875-0.8094-0.3144582-1.261719-0.3183594-0.3870511-0.0033763-0.7782366 0.025655-1.1699215 0.0898437-3.4289484 0.5593088-5.5964186 3.5264038-6.0722656 6.7382818-0.146347 0.080034-0.3023935 0.137404-0.4472657 0.220703-1.0391257 0.597665-1.6227968 1.756523-1.484375 2.947265 0.0052617 0.045321 0.0196968 0.102341 0.0253907 0.148438 0.1482895-0.867142 0.6715119-1.64278 1.4589843-2.095703 0.1448722-0.083299 0.3009187-0.140669 0.4472657-0.220703 0.475847-3.211878 2.6433172-6.178973 6.0722656-6.7382818 0.3916849-0.0641887 0.7828704-0.0932199 1.1699215-0.0898437 0.452319 0.0039013 0.830753 0.2307719 1.261719 0.3183594 0.219565-0.164995 0.460759-0.29906 0.716797-0.3984375 0.731632-0.28136 1.495282-0.5012919 2.283203-0.6582032l0.001953-0.0019531c0.785983-0.1558425 1.571443-0.2400562 2.345703-0.2617187 0.235189-0.00655 0.46772 0.0064687 0.701172 0.0117187a12.999735 13 0 0 1 0.496094 -0.0175781 12.999735 13 0 0 1 12.978516 12.580078 12.999735 13 0 0 0 0.021484 -0.580078 12.999735 13 0 0 0 -13 -13z" style="fill:#ffffff;opacity:.2"/>
 </g>
</svg>

<svg xmlns="http://www.w3.org/2000/svg" width="32" height="32" version="1.1" viewBox="0 0 32 32" xml:space="preserve">
 <g transform="matrix(1.25,0,0,-1.25,0,32.00033)">
  <path style="opacity:0.2" d="m 14.400212,22.400264 a 10.399788,10.4 0 0 1 -0.396867,-0.01406 c -0.186762,0.0042 -0.372775,0.01464 -0.560926,0.0094 -0.619408,-0.01733 -1.247738,-0.0847 -1.876524,-0.209374 l -0.0016,-0.0016 C 10.933958,22.059101 10.323113,21.883164 9.7378075,21.658076 9.5329772,21.578574 9.3400332,21.471322 9.1643816,21.339326 8.8196086,21.409396 8.516882,21.590893 8.155027,21.594014 7.8453858,21.596715 7.5324568,21.57349 7.2191089,21.522139 4.4759502,21.074692 2.7420731,18.701016 2.3613955,16.131514 2.2443179,16.067486 2.119488,16.02159 2.0035903,15.954951 1.1722897,15.476819 0.70537707,14.549733 0.81611453,13.597139 0.91403461,12.753711 1.1038173,11.740693 1.4645388,10.634639 1.6487793,10.069562 1.8774777,9.4831338 2.1613996,8.8830766 l 0.00156,-0.00313 C 2.4901069,8.186463 2.8903629,7.4836758 3.3754373,6.7877638 5.8794189,3.2159094 9.6003055,1.6002614 14.008033,1.617451 l -0.103123,-0.00781 0.162496,0.00781 a 10.399788,10.4 0 0 1 0.332806,-0.017187 10.399788,10.4 0 0 1 10.399788,10.4 10.399788,10.4 0 0 1 -10.399788,10.4 z"/>
  <path style="fill:#cccccc" d="m 14.400212,23.200264 a 10.399788,10.4 0 0 1 -0.396867,-0.01406 c -0.186762,0.0042 -0.372775,0.01464 -0.560926,0.0094 -0.619408,-0.01733 -1.247738,-0.0847 -1.876524,-0.209374 l -0.0016,-0.0016 C 10.933958,22.859101 10.323113,22.683164 9.7378075,22.458076 9.5329772,22.378574 9.3400332,22.271322 9.1643816,22.139326 8.8196086,22.209396 8.516882,22.390893 8.155027,22.394014 7.8453858,22.396715 7.5324568,22.37349 7.2191089,22.322139 4.4759502,21.874692 2.7420731,19.501016 2.3613955,16.931514 2.2443179,16.867486 2.119488,16.82159 2.0035903,16.754951 1.1722897,16.276819 0.70537707,15.349733 0.81611453,14.397139 0.91403461,13.553711 1.1038173,12.540693 1.4645388,11.434639 1.6487793,10.869562 1.8774777,10.283134 2.1613996,9.6830768 l 0.00156,-0.00313 C 2.4901069,8.9864632 2.8903629,8.283676 3.3754373,7.587764 5.8794189,4.0159096 9.6003055,2.4002616 14.008033,2.4174512 l -0.103123,-0.00781 0.162496,0.00781 A 10.399788,10.4 0 0 1 14.400212,2.4002642 10.399788,10.4 0 0 1 24.8,12.800264 a 10.399788,10.4 0 0 1 -10.399788,10.4 z"/>
  <path style="fill:#4282de" d="m 14.374523,14.759065 c -0.0026,0.06184 -0.0088,0.125649 -0.01256,0.186126 -0.03437,0.453585 -0.09143,0.874116 -0.156003,1.253771 -0.01257,0.05829 -0.02189,0.116472 -0.03233,0.171737 -0.0043,0.02512 -0.0093,0.04848 -0.01368,0.07382 -0.0063,0.02304 -0.01055,0.04818 -0.01541,0.07028 -0.680776,0.131071 -1.365404,0.216887 -2.052364,0.257553 -0.380944,0.02346 -0.764241,0.03097 -1.145591,0.02639 -0.781109,-0.0096 -1.563891,-0.07789 -2.3442089,-0.205624 -0.081053,-0.01168 -0.1638893,-0.02669 -0.2453067,-0.04087 -0.030873,-0.0062 -0.0618,-0.01021 -0.0913,-0.01751 C 7.7275582,16.436005 7.1969254,16.309836 6.6748078,16.154887 6.5618044,16.123189 6.4499467,16.089926 6.3375314,16.052596 6.2733463,16.033513 6.208563,16.012868 6.146395,15.992431 5.7790231,15.870849 5.4221832,15.737485 5.0660934,15.592129 4.4282052,15.327904 3.8055524,15.022386 3.2,14.67422 3.282442,13.964126 3.4419413,13.10852 3.7450874,12.179025 3.8997927,11.704544 4.0911926,11.21361 4.3299204,10.709078 l 0.00344,-0.005 C 4.6052335,10.127767 4.9381206,9.5418391 5.3442651,8.959176 5.4783322,8.7661575 5.6140719,8.5820121 5.7548393,8.4026639 7.2644775,6.4712282 9.0454744,5.388996 10.38803,4.800264 c 0.01006,0.0099 0.02138,0.018373 0.03104,0.028268 0.02285,0.022398 0.04787,0.045577 0.07085,0.067454 0.371092,0.3467055 0.76567,0.7626478 1.162063,1.2513825 0.02945,0.038049 0.06031,0.074951 0.08949,0.1135627 0.02432,0.028759 0.04621,0.059229 0.07041,0.087975 0.05213,0.07031 0.107763,0.1415071 0.162095,0.2144144 0.439424,0.5974495 0.863438,1.2851563 1.235453,2.0719643 0.02727,0.056624 0.05311,0.1113629 0.07806,0.1677745 0.196548,0.4325215 0.376169,0.8953966 0.531869,1.3898766 0.01723,0.05462 0.03507,0.110091 0.05351,0.168254 0.0025,0.01055 0.0049,0.02078 0.0097,0.03121 l -3.04e-4,0.0014 c 0.143534,0.481926 0.250779,0.956615 0.329643,1.413296 0.0052,0.02652 0.0093,0.0545 0.0147,0.07889 0.01075,0.06333 0.02027,0.124397 0.02859,0.186388 0.07217,0.465523 0.11424,0.912299 0.133399,1.342609 0.0022,0.06485 0.0045,0.127421 0.0043,0.191862 0.0148,0.403742 0.0055,0.78809 -0.01823,1.152313"/>
  <path style="opacity:0.2" d="m 9.2,12.800151 a 1.2000001,1.2000001 0 0 1 -1.2,-1.2 1.2000001,1.2000001 0 0 1 0.8062496,-1.132813 l 0,-0.8624996 L 8.8,9.595464 10.4,9.6001512 9.9859376,10.695464 A 1.2000001,1.2000001 0 0 1 10.4,11.600151 a 1.2000001,1.2000001 0 0 1 -1.2,1.2 z"/>
  <path style="fill:#ffffff" d="M 11.5 15 A 1.5000001 1.5000001 0 0 0 10 16.5 A 1.5000001 1.5000001 0 0 0 11.007812 17.916016 L 11.007812 18.994141 L 11 19.005859 L 13 19 L 12.482422 17.630859 A 1.5000001 1.5000001 0 0 0 13 16.5 A 1.5000001 1.5000001 0 0 0 11.5 15 z" transform="matrix(0.8,0,0,-0.8,0,25.600264)"/>
  <path style="fill:#3f3f3f" d="m 16.886719,6.0039062 c -0.609858,0.017062 -1.227942,0.084549 -1.845703,0.2070313 -0.621892,0.123875 -1.222897,0.2983544 -1.792969,0.5175781 0.541594,0.3559038 1.043069,1.0926969 1.482422,1.5996094 0.215254,-0.058837 0.431261,-0.1085544 0.652343,-0.1503906 2.477749,-0.4918263 4.7818,-0.2194059 6.732422,1.0586428 l 1.851563,-0.826221 0.05078,-0.023437 C 22.046814,6.8148663 19.529428,5.9300112 16.886719,6.0039062 Z m 7.86914,3.0292969 -0.02344,0.011719 c -0.163448,0.078238 -0.320539,0.1569062 -0.484375,0.234375 -0.167464,0.07215 -0.333724,0.1463312 -0.503906,0.2226562 -0.211887,0.094337 -0.426979,0.1836938 -0.650391,0.2695313 -0.133401,0.052362 -0.272082,0.1073887 -0.408203,0.1640625 -0.181839,0.072137 -0.371563,0.1341499 -0.556641,0.2031249 -0.188445,0.06061 -0.376557,0.133895 -0.570312,0.193359 -0.769706,0.253076 -1.573418,0.46794 -2.396485,0.660157 -0.169874,0.0374 -0.343486,0.06867 -0.515625,0.101562 l 0.0098,0.04687 c 0.01397,0.06355 0.01853,0.07841 0.0078,0.03906 l 0.01367,0.04687 0.0098,0.04883 c 0.0012,0.0075 0.0059,0.03495 0.01563,0.0918 0.01452,0.07713 0.02561,0.138636 0.0332,0.173828 l 0.0039,0.02148 0.002,0.01953 c 0.0554,0.325766 0.09455,1.111633 0.136718,1.483928 0.242801,-0.07954 0.486969,-0.156733 0.72461,-0.242188 0.839775,-0.312795 1.648858,-0.647599 2.408203,-1.017578 0.190776,-0.08571 0.377553,-0.191811 0.5625,-0.279297 0.184041,-0.1003 0.366709,-0.184941 0.544922,-0.283203 0.238695,-0.135161 0.472838,-0.263684 0.701171,-0.394531 0.11255,-0.06402 0.220111,-0.1292 0.328126,-0.19336 0.163188,-0.1003 0.324942,-0.200083 0.484374,-0.294922 0.157232,-0.09738 0.309275,-0.204294 0.460938,-0.300781 0.05323,-0.03486 0.105609,-0.068891 0.15625,-0.1035159 L 24.755952,9.0331903 Z m 3.308594,5.5292969 -0.183594,0.0957 c -0.158397,0.08152 -0.319322,0.168144 -0.474609,0.251953 -0.153735,0.08195 -0.30539,0.16058 -0.460938,0.230469 l -0.958984,0.443359 -1.921875,0.888672 -0.478515,0.220703 c -0.155548,0.07227 -0.325859,0.132007 -0.486329,0.195313 -1.271358,0.534517 -2.967041,0.932375 -4.527343,1.283203 -0.06004,0.52503 -0.211255,0.898554 -0.34375,1.386719 -0.05263,0.167139 -0.113324,0.324498 -0.169922,0.486328 1.703839,0.06504 4.8292,-0.03206 7.71875,-2.462891 0.113587,0.722085 -1.150524,2.466023 -1.613282,3.021485 -1.701771,2.049799 -4.675576,2.459152 -7.46875,2.376953 -0.29725,0.503127 -0.604909,0.97725 -0.921874,1.408203 l -0.002,0.002 -0.002,0.002 c -0.07696,0.103275 -0.146378,0.191722 -0.201172,0.265625 l -0.01953,0.02539 -0.01953,0.02344 c 0.0016,-0.0019 -0.03393,0.03978 -0.05664,0.06836 l -0.0293,0.03906 c -0.0029,0.0035 -9.06e-4,0.0022 -0.0039,0.0059 -0.0334,0.04254 -0.0688,0.08781 -0.08398,0.107422 l -0.0059,0.0098 -0.0078,0.0098 c -0.228729,0.28214 -0.457123,0.538583 -0.683594,0.785156 0.275168,0.06014 0.555954,0.0979 0.832031,0.144531 0.286745,0.06275 0.579847,0.07108 0.876954,0.08984 0.295034,0.01367 0.585706,0.04934 0.882812,0.02344 l 0.894531,-0.03906 0.855469,-0.125 0.212891,-0.0293 c 0.04261,-0.0086 0.05814,-0.0067 0.11914,-0.02148 L 19.439453,25.75 19.867188,25.644531 c 0.140783,-0.03651 0.285785,-0.06596 0.427734,-0.111328 L 20.710938,25.392578 21.125,25.25 l 0.404297,-0.177734 0.402344,-0.175782 c 0.131068,-0.06626 0.255908,-0.135342 0.386718,-0.205078 l 0.388672,-0.207031 c 0.126149,-0.07023 0.244677,-0.158439 0.369141,-0.234375 0.245042,-0.155814 0.491301,-0.312881 0.714844,-0.5 0.232351,-0.177267 0.467001,-0.350453 0.675781,-0.556641 0.218101,-0.195487 0.43784,-0.389034 0.623047,-0.601562 l 0.292968,-0.310547 0.07227,-0.08203 0.07813,-0.08594 c 0.04455,-0.05602 0.09204,-0.114589 0.136719,-0.169922 0.172385,-0.228719 0.363834,-0.448968 0.515625,-0.691406 l 0.242187,-0.359375 c 0.07654,-0.12328 0.14648,-0.249843 0.21875,-0.375 0.1549,-0.249767 0.277222,-0.504863 0.400391,-0.757812 0.128737,-0.245609 0.24439,-0.53841 0.339844,-0.794922 l 0.148437,-0.404297 c 0.04352,-0.134515 0.08057,-0.273781 0.123047,-0.412109 l 0.117188,-0.414063 0.08789,-0.416016 c 0.06372,-0.270966 0.10033,-0.569233 0.138672,-0.849609 0.04119,-0.286715 0.04545,-0.558038 0.07031,-0.853516 0.01037,-0.278648 -0.0032,-0.572062 -0.0078,-0.851562 z" transform="matrix(0.8,0,0,-0.8,0,25.600264)"/>
  <path style="fill:#4282de" d="m 18.690625,15.084964 c -0.934724,-0.475402 -2.343184,-0.906112 -3.514063,-1.25 0.0176,-0.337585 0.02928,-0.683558 0.01563,-1.05625 -6.99e-4,-0.06994 -0.0028,-0.134666 -0.0047,-0.189063 l 0,-0.0062 0,-0.0047 c -0.0048,-0.108294 -0.01573,-0.22086 -0.02344,-0.33125 1.54122,0.340042 3.329299,0.738874 4.460938,1.160938 -0.536088,0.425533 -0.856458,1.033961 -0.934375,1.676562 z"/>
  <path style="fill:#4282de" d="m 22.133931,14.315121 c -0.405032,-0.60553 -1.150925,-0.850024 -1.811813,-0.641235 -0.139862,0.04199 -0.278257,0.106698 -0.406289,0.193501 -0.52961,0.351193 -0.781173,0.959341 -0.701296,1.548117 0.03078,0.231406 0.112433,0.462498 0.251457,0.670344 0.488468,0.73516 1.482993,0.936409 2.219149,0.447839 0.735215,-0.48836 0.936109,-1.481626 0.448792,-2.218566"/>
  <path style="fill:#3f3f3f" d="M 10.167969 7.0078125 C 9.9491164 7.0059037 9.7287361 7.02239 9.5078125 7.0585938 C 7.451535 7.3934202 5.9990507 9.3202077 5.8105469 11.648438 C 5.8571753 11.628723 5.9024708 11.605301 5.9492188 11.585938 L 5.9511719 11.585938 L 5.9550781 11.585938 C 6.3914658 11.407804 6.83205 11.244066 7.2851562 11.091797 C 7.5943465 9.6989932 8.4995079 8.6178046 9.7304688 8.4160156 C 10.034984 8.3662781 10.34003 8.3752906 10.632812 8.4316406 C 10.751345 8.4537781 10.865242 8.4843094 10.978516 8.5214844 C 11.462422 8.6803994 11.913271 8.9680025 12.302734 9.3632812 C 12.376753 9.4374938 12.445847 9.5129406 12.511719 9.5957031 C 12.627695 9.7316358 12.732758 9.883886 12.830078 10.042969 C 13.110784 10.027816 13.391526 10.003446 13.671875 10 C 13.903921 9.9971989 14.13943 10.012502 14.373047 10.017578 C 14.200945 9.6436966 14.008772 9.285983 13.771484 8.9726562 C 13.695047 8.8713688 13.619083 8.7758075 13.541016 8.6835938 C 13.201092 8.2903863 12.815215 7.953285 12.398438 7.6914062 C 12.287494 7.6188813 12.170694 7.5516231 12.054688 7.4902344 C 11.466529 7.1851269 10.824524 7.013475 10.167969 7.0078125 z" transform="matrix(0.8,0,0,-0.8,0,25.600264)"/>
  <path style="opacity:0.2;fill:#ffffff" d="M 18 3 A 12.999735 13 0 0 0 17.503906 3.0175781 C 17.270454 3.0123281 17.037923 2.9993094 16.802734 3.0058594 C 16.028474 3.0275219 15.243014 3.1117356 14.457031 3.2675781 L 14.455078 3.2695312 C 13.667157 3.4264425 12.903507 3.6463744 12.171875 3.9277344 C 11.915837 4.0271119 11.674643 4.1611769 11.455078 4.3261719 C 11.024112 4.2385844 10.645678 4.0117137 10.193359 4.0078125 C 9.8063079 4.0044362 9.4151224 4.0334675 9.0234375 4.0976562 C 5.5944891 4.656965 3.4270189 7.62406 2.9511719 10.835938 C 2.8048249 10.915972 2.6487784 10.973342 2.5039062 11.056641 C 1.4647805 11.654306 0.88110943 12.813164 1.0195312 14.003906 C 1.0247929 14.049227 1.039228 14.106247 1.0449219 14.152344 C 1.1932114 13.285202 1.7164338 12.509564 2.5039062 12.056641 C 2.6487784 11.973342 2.8048249 11.915972 2.9511719 11.835938 C 3.4270189 8.62406 5.5944891 5.656965 9.0234375 5.0976562 C 9.4151224 5.0334675 9.8063079 5.0044363 10.193359 5.0078125 C 10.645678 5.0117138 11.024112 5.2385844 11.455078 5.3261719 C 11.674643 5.1611769 11.915837 5.0271119 12.171875 4.9277344 C 12.903507 4.6463744 13.667157 4.4264425 14.455078 4.2695312 L 14.457031 4.2675781 C 15.243014 4.1117356 16.028474 4.0275219 16.802734 4.0058594 C 17.037923 3.9993094 17.270454 4.0123281 17.503906 4.0175781 A 12.999735 13 0 0 1 18 4 A 12.999735 13 0 0 1 30.978516 16.580078 A 12.999735 13 0 0 0 31 16 A 12.999735 13 0 0 0 18 3 z" transform="matrix(0.8,0,0,-0.8,0,25.600264)"/>
 </g>
</svg>
